X:4245
T:Donald Blue
S:Scots Guards pipe tune book
M:2/4
L:1/8
K:EDor
   d>B G>B|dB cA|d>B G>B|AB e2 |
   d>B G>B|dB cA|B>A G>B|AB e2:|
   B>B g>e|dB cA|B>B g>e|dB e2 |
[1 B>B g>e|dB cA|B>A G>B|AB e2:|
[2 e>f g>e|dB cA|B>A G>B|AB e2|]
